Newaita-dark/apps/48/doublecmd.svg

<svg height="48pt" viewBox="0 0 48 48" width="48pt" xmlns="http://www.w3.org/2000/svg" xmlns:xlink="http://www.w3.org/1999/xlink"><linearGradient id="a" gradientUnits="userSpaceOnUse" x1="23.81478" x2="23.81478" y1="42.0509045" y2="44.03547050005"><stop offset="0" stop-opacity=".27451"/><stop offset="1" stop-opacity="0"/></linearGradient><linearGradient id="b"><stop offset="0" stop-opacity=".313725"/><stop offset=".222222" stop-opacity=".27451"/><stop offset="1" stop-opacity="0"/></linearGradient><radialGradient id="c" cx="450.908936" cy="189.579361" gradientTransform="matrix(.00000026 -.117199 -.210958 -.00000015 78.195972 95.392999)" gradientUnits="userSpaceOnUse" r="21.166656" xlink:href="#b"/><radialGradient id="d" cx="450.908936" cy="189.579361" gradientTransform="matrix(-.00000026 .117199 .210958 .00000015 -30.56642 -11.291218)" gradientUnits="userSpaceOnUse" r="21.166656" xlink:href="#b"/><radialGradient id="e" cx="450.908936" cy="189.579361" gradientTransform="matrix(-.00000026 -.117199 .210958 -.00000015 -30.56642 95.392999)" gradientUnits="userSpaceOnUse" r="21.166656" xlink:href="#b"/><radialGradient id="f" cx="450.908936" cy="189.579361" gradientTransform="matrix(.00000026 .117199 -.210958 .00000015 78.195969 -11.291219)" gradientUnits="userSpaceOnUse" r="21.166656" xlink:href="#b"/><linearGradient id="g" gradientUnits="userSpaceOnUse" x1="23.814786" x2="23.814786" y1="42.0509015" y2="4.34415649995"><stop offset="0" stop-color="#f44336"/><stop offset="1" stop-color="#ef5350"/></linearGradient><linearGradient id="h"><stop offset="0" stop-color="#eee"/><stop offset="1" stop-color="#e0e0e0"/></linearGradient><linearGradient id="i" gradientUnits="userSpaceOnUse" x1="520" x2="520" xlink:href="#h" y1="1535.118164" y2="335.118103"/><linearGradient id="j" gradientTransform="matrix(-.264583 0 0 .264583 508 -215)" gradientUnits="userSpaceOnUse" x1="520" x2="520" xlink:href="#h" y1="1535.118164" y2="335.118103"/><path d="m8.929688 42.050781h29.769531v1.984375h-29.769531zm0 0" fill="url(#a)"/><path d="m38.699219 42.050781h3.96875v-1.984375h-3.96875zm0 0" fill="url(#c)"/><path d="m8.929688 42.050781h-3.96875v1.984375h3.96875zm0 0" fill="url(#d)"/><path d="m8.929688 42.050781h-3.96875v-1.984375h3.96875zm0 0" fill="url(#e)"/><path d="m38.699219 42.050781h3.96875v1.984375h-3.96875zm0 0" fill="url(#f)"/><path d="m8.929688 4.34375h29.769531c2.191406 0 3.96875 1.777344 3.96875 3.96875v29.769531c0 2.191407-1.777344 3.96875-3.96875 3.96875h-29.769531c-2.191407 0-3.96875-1.777343-3.96875-3.96875v-29.769531c0-2.191406 1.777343-3.96875 3.96875-3.96875zm0 0" fill="url(#g)"/><path d="m8.929688 4.34375c-2.199219 0-3.96875 1.769531-3.96875 3.96875v.496094c0-2.199219 1.769531-3.96875 3.96875-3.96875h29.769531c2.199219 0 3.96875 1.769531 3.96875 3.96875v-.496094c0-2.199219-1.769531-3.96875-3.96875-3.96875zm0 0" fill="#fff" fill-opacity=".392157"/><path d="m8.929688 42.050781c-2.199219 0-3.96875-1.769531-3.96875-3.96875v-.496093c0 2.199218 1.769531 3.96875 3.96875 3.96875h29.769531c2.199219 0 3.96875-1.769532 3.96875-3.96875v.496093c0 2.199219-1.769531 3.96875-3.96875 3.96875zm0 0" fill-opacity=".235294"/><path d="m8.929688 4.203125c-2.273438 0-4.109376 1.835937-4.109376 4.109375v29.769531c0 2.273438 1.835938 4.109375 4.109376 4.109375h29.769531c2.273437 0 4.109375-1.835937 4.109375-4.109375v-29.769531c0-2.273438-1.835938-4.109375-4.109375-4.109375zm0 .28125h29.769531c2.125 0 3.828125 1.707031 3.828125 3.828125v29.769531c0 2.125-1.703125 3.828125-3.828125 3.828125h-29.769531c-2.121094 0-3.828126-1.703125-3.828126-3.828125v-29.769531c0-2.121094 1.707032-3.828125 3.828126-3.828125zm0 0" fill="#212121"/><g stroke="#212121" stroke-linecap="round"><path d="m199.980913 335.086129c-44.247745 0-79.992365 35.74462-79.992365 79.992365v119.988548c0 44.405211 35.74462 79.992365 79.992365 79.992365 221.553658 0 399.961827 142.821015 399.961827 320.126927 0 177.148447-178.408169 319.969461-399.961827 319.969461-44.247745 0-79.992365 35.587155-79.992365 79.992365v119.988548c0 44.247746 35.74462 79.992366 79.992365 79.992366 376.81443 0 680.092571-265.801403 680.092571-595.848643v-8.188195c0-330.204704-303.278141-596.006107-680.092571-596.006107zm0 0" fill="url(#i)" stroke-width="11.338583" transform="scale(.0248071)"/><path d="m455.081542-126.3418c11.748878 0 21.164645 9.45743 21.164645 21.164646v31.746968c0 11.748878-9.415767 21.164646-21.164645 21.164646-58.619402 0-105.823228 37.788058-105.823228 84.700244 0 46.870525 47.203826 84.658583 105.823228 84.658583 11.748878 0 21.164645 9.415767 21.164645 21.164645v31.746969c0 11.707215-9.415767 21.164645-21.164645 21.164645-99.65715 0-179.899487-70.326617-179.899487-157.651612v-2.166459c0-87.366657 80.242337-157.693275 179.899487-157.693275zm0 0" fill="url(#j)" stroke-width="3" transform="matrix(.093759 0 0 .093759 0 20.158175)"/></g></svg>

<?xml version="1.0" encoding="UTF-8"?>
<svg xmlns="http://www.w3.org/2000/svg" xmlns:xlink="http://www.w3.org/1999/xlink" width="48pt" height="48pt" viewBox="0 0 48 48" version="1.1">
<defs>
<linearGradient id="linear0" gradientUnits="userSpaceOnUse" x1="254" y1="233.5" x2="254" y2="254.666672" gradientTransform="matrix(0.093759,0,0,0.093759,-0.00000572259,20.158178)">
<stop offset="0" style="stop-color:rgb(0%,0%,0%);stop-opacity:0.27451;"/>
<stop offset="1" style="stop-color:rgb(0%,0%,0%);stop-opacity:0;"/>
</linearGradient>
<radialGradient id="radial0" gradientUnits="userSpaceOnUse" cx="450.908936" cy="189.579361" fx="450.908936" fy="189.579361" r="21.166656" gradientTransform="matrix(0.000000261256,-0.117199,-0.210958,-0.000000152308,78.195972,95.392999)">
<stop offset="0" style="stop-color:rgb(0%,0%,0%);stop-opacity:0.313725;"/>
<stop offset="0.222222" style="stop-color:rgb(0%,0%,0%);stop-opacity:0.27451;"/>
<stop offset="1" style="stop-color:rgb(0%,0%,0%);stop-opacity:0;"/>
</radialGradient>
<radialGradient id="radial1" gradientUnits="userSpaceOnUse" cx="450.908936" cy="189.579361" fx="450.908936" fy="189.579361" r="21.166656" gradientTransform="matrix(-0.000000261256,0.117199,0.210958,0.000000152308,-30.56642,-11.291218)">
<stop offset="0" style="stop-color:rgb(0%,0%,0%);stop-opacity:0.313725;"/>
<stop offset="0.222222" style="stop-color:rgb(0%,0%,0%);stop-opacity:0.27451;"/>
<stop offset="1" style="stop-color:rgb(0%,0%,0%);stop-opacity:0;"/>
</radialGradient>
<radialGradient id="radial2" gradientUnits="userSpaceOnUse" cx="450.908936" cy="189.579361" fx="450.908936" fy="189.579361" r="21.166656" gradientTransform="matrix(-0.000000261256,-0.117199,0.210958,-0.000000152308,-30.56642,95.392999)">
<stop offset="0" style="stop-color:rgb(0%,0%,0%);stop-opacity:0.313725;"/>
<stop offset="0.222222" style="stop-color:rgb(0%,0%,0%);stop-opacity:0.27451;"/>
<stop offset="1" style="stop-color:rgb(0%,0%,0%);stop-opacity:0;"/>
</radialGradient>
<radialGradient id="radial3" gradientUnits="userSpaceOnUse" cx="450.908936" cy="189.579361" fx="450.908936" fy="189.579361" r="21.166656" gradientTransform="matrix(0.000000261256,0.117199,-0.210958,0.000000152308,78.195969,-11.291219)">
<stop offset="0" style="stop-color:rgb(0%,0%,0%);stop-opacity:0.313725;"/>
<stop offset="0.222222" style="stop-color:rgb(0%,0%,0%);stop-opacity:0.27451;"/>
<stop offset="1" style="stop-color:rgb(0%,0%,0%);stop-opacity:0;"/>
</radialGradient>
<linearGradient id="linear1" gradientUnits="userSpaceOnUse" x1="254" y1="233.5" x2="254" y2="-168.666672" gradientTransform="matrix(0.093759,0,0,0.093759,0,20.158175)">
<stop offset="0" style="stop-color:rgb(95.686275%,26.27451%,21.176471%);stop-opacity:1;"/>
<stop offset="1" style="stop-color:rgb(93.72549%,32.54902%,31.372549%);stop-opacity:1;"/>
</linearGradient>
<linearGradient id="linear2" gradientUnits="userSpaceOnUse" x1="520" y1="1535.118164" x2="520" y2="335.118103" gradientTransform="matrix(1,0,0,1,0,0)">
<stop offset="0" style="stop-color:rgb(93.333333%,93.333333%,93.333333%);stop-opacity:1;"/>
<stop offset="1" style="stop-color:rgb(87.843137%,87.843137%,87.843137%);stop-opacity:1;"/>
</linearGradient>
<linearGradient id="linear3" gradientUnits="userSpaceOnUse" x1="520" y1="1535.118164" x2="520" y2="335.118103" gradientTransform="matrix(-0.264583,0,0,0.264583,508,-215)">
<stop offset="0" style="stop-color:rgb(93.333333%,93.333333%,93.333333%);stop-opacity:1;"/>
<stop offset="1" style="stop-color:rgb(87.843137%,87.843137%,87.843137%);stop-opacity:1;"/>
</linearGradient>
</defs>
<g id="surface1">
<path style=" stroke:none;fill-rule:nonzero;fill:url(#linear0);" d="M 8.929688 42.050781 L 38.699219 42.050781 L 38.699219 44.035156 L 8.929688 44.035156 Z M 8.929688 42.050781 "/>
<path style=" stroke:none;fill-rule:nonzero;fill:url(#radial0);" d="M 38.699219 42.050781 L 42.667969 42.050781 L 42.667969 40.066406 L 38.699219 40.066406 Z M 38.699219 42.050781 "/>
<path style=" stroke:none;fill-rule:nonzero;fill:url(#radial1);" d="M 8.929688 42.050781 L 4.960938 42.050781 L 4.960938 44.035156 L 8.929688 44.035156 Z M 8.929688 42.050781 "/>
<path style=" stroke:none;fill-rule:nonzero;fill:url(#radial2);" d="M 8.929688 42.050781 L 4.960938 42.050781 L 4.960938 40.066406 L 8.929688 40.066406 Z M 8.929688 42.050781 "/>
<path style=" stroke:none;fill-rule:nonzero;fill:url(#radial3);" d="M 38.699219 42.050781 L 42.667969 42.050781 L 42.667969 44.035156 L 38.699219 44.035156 Z M 38.699219 42.050781 "/>
<path style=" stroke:none;fill-rule:nonzero;fill:url(#linear1);" d="M 8.929688 4.34375 L 38.699219 4.34375 C 40.890625 4.34375 42.667969 6.121094 42.667969 8.3125 L 42.667969 38.082031 C 42.667969 40.273438 40.890625 42.050781 38.699219 42.050781 L 8.929688 42.050781 C 6.738281 42.050781 4.960938 40.273438 4.960938 38.082031 L 4.960938 8.3125 C 4.960938 6.121094 6.738281 4.34375 8.929688 4.34375 Z M 8.929688 4.34375 "/>
<path style=" stroke:none;fill-rule:nonzero;fill:rgb(100%,100%,100%);fill-opacity:0.392157;" d="M 8.929688 4.34375 C 6.730469 4.34375 4.960938 6.113281 4.960938 8.3125 L 4.960938 8.808594 C 4.960938 6.609375 6.730469 4.839844 8.929688 4.839844 L 38.699219 4.839844 C 40.898438 4.839844 42.667969 6.609375 42.667969 8.808594 L 42.667969 8.3125 C 42.667969 6.113281 40.898438 4.34375 38.699219 4.34375 Z M 8.929688 4.34375 "/>
<path style=" stroke:none;fill-rule:nonzero;fill:rgb(0%,0%,0%);fill-opacity:0.235294;" d="M 8.929688 42.050781 C 6.730469 42.050781 4.960938 40.28125 4.960938 38.082031 L 4.960938 37.585938 C 4.960938 39.785156 6.730469 41.554688 8.929688 41.554688 L 38.699219 41.554688 C 40.898438 41.554688 42.667969 39.785156 42.667969 37.585938 L 42.667969 38.082031 C 42.667969 40.28125 40.898438 42.050781 38.699219 42.050781 Z M 8.929688 42.050781 "/>
<path style=" stroke:none;fill-rule:nonzero;fill:rgb(12.941177%,12.941177%,12.941177%);fill-opacity:1;" d="M 8.929688 4.203125 C 6.65625 4.203125 4.820312 6.039062 4.820312 8.3125 L 4.820312 38.082031 C 4.820312 40.355469 6.65625 42.191406 8.929688 42.191406 L 38.699219 42.191406 C 40.972656 42.191406 42.808594 40.355469 42.808594 38.082031 L 42.808594 8.3125 C 42.808594 6.039062 40.972656 4.203125 38.699219 4.203125 Z M 8.929688 4.484375 L 38.699219 4.484375 C 40.824219 4.484375 42.527344 6.191406 42.527344 8.3125 L 42.527344 38.082031 C 42.527344 40.207031 40.824219 41.910156 38.699219 41.910156 L 8.929688 41.910156 C 6.808594 41.910156 5.101562 40.207031 5.101562 38.082031 L 5.101562 8.3125 C 5.101562 6.191406 6.808594 4.484375 8.929688 4.484375 Z M 8.929688 4.484375 "/>
<path style="fill-rule:nonzero;fill:url(#linear2);stroke-width:11.338583;stroke-linecap:round;stroke-linejoin:miter;stroke:rgb(12.941177%,12.941177%,12.941177%);stroke-opacity:1;stroke-miterlimit:4;" d="M 199.980913 335.086129 C 155.733168 335.086129 119.988548 370.830749 119.988548 415.078494 L 119.988548 535.067042 C 119.988548 579.472253 155.733168 615.059407 199.980913 615.059407 C 421.534571 615.059407 599.94274 757.880422 599.94274 935.186334 C 599.94274 1112.334781 421.534571 1255.155795 199.980913 1255.155795 C 155.733168 1255.155795 119.988548 1290.74295 119.988548 1335.14816 L 119.988548 1455.136708 C 119.988548 1499.384454 155.733168 1535.129074 199.980913 1535.129074 C 576.795343 1535.129074 880.073484 1269.327671 880.073484 939.280431 L 880.073484 931.092236 C 880.073484 600.887532 576.795343 335.086129 199.980913 335.086129 Z M 199.980913 335.086129 " transform="matrix(0.0248071,0,0,0.0248071,0,0)"/>
<path style="fill-rule:nonzero;fill:url(#linear3);stroke-width:3;stroke-linecap:round;stroke-linejoin:miter;stroke:rgb(12.941177%,12.941177%,12.941177%);stroke-opacity:1;stroke-miterlimit:4;" d="M 455.081542 -126.3418 C 466.83042 -126.3418 476.246187 -116.88437 476.246187 -105.177154 L 476.246187 -73.430186 C 476.246187 -61.681308 466.83042 -52.26554 455.081542 -52.26554 C 396.46214 -52.26554 349.258314 -14.477482 349.258314 32.434704 C 349.258314 79.305229 396.46214 117.093287 455.081542 117.093287 C 466.83042 117.093287 476.246187 126.509054 476.246187 138.257932 L 476.246187 170.004901 C 476.246187 181.712116 466.83042 191.169546 455.081542 191.169546 C 355.424392 191.169546 275.182055 120.842929 275.182055 33.517934 L 275.182055 31.351475 C 275.182055 -56.015182 355.424392 -126.3418 455.081542 -126.3418 Z M 455.081542 -126.3418 " transform="matrix(0.093759,0,0,0.093759,0,20.158175)"/>
</g>
</svg>
